X: 41775
T: Vatersay Ambulance, The
R: polka
M: 2/4
K: Amajor
|:a2 ae|fe ce|B>e ce|Be c/B/A|
a>a ae|fe ce|B>e dB|1 BA A2:|2 BA A>F||
|:EA A>c|BA A>c|BA A>c|ec BA|
EA A>c|BA A2|e>f ec|1 BA A>F:|2 BA A2||

